X:24
T:The Boyne Hunt
R:reel
M:4/4
L:1/8
K:Gmaj
BAFA DAFA|DAFA BE~E2|BAFA DAFA|ABde fedB|
BAFA DAFA|DAFA BE~E2|BAFA DAFA|ABde fdd2||
faaf afdf|gfga be~e2|faaf afdB|ABde fdd2|
faaf afdf|gfga be~e2|fgfe d2dB|ABde fedB||

